Sources/FrostedUI/Resources/Icons.xcassets/sadFaceFilled20.imageset/sad-face-filled-20.svg

<svg width="20" height="20" viewBox="0 0 20 20" fill="none" xmlns="http://www.w3.org/2000/svg" data-fui-icon="true">
  <g clip-path="url(#clip0_6288_52)">
    <path
      d="M10 0C15.4193 0 20 4.58071 20 10C20 15.4193 15.4193 20 10 20C4.58071 20 0 15.4193 0 10C0 4.58071 4.58071 0 10 0ZM10 12.25C8.54403 12.25 7.51632 12.8017 6.85547 13.3682C6.52912 13.6479 6.29447 13.9282 6.13965 14.1426C6.06199 14.2501 6.00362 14.3427 5.96289 14.4111C5.94266 14.4451 5.92683 14.4735 5.91504 14.4951C5.9092 14.5058 5.90423 14.5151 5.90039 14.5225L5.89258 14.5381L5.8916 14.5391C5.89178 14.5396 5.9048 14.5461 6.37891 14.7832L5.8916 14.54C5.70666 14.9104 5.85719 15.3607 6.22754 15.5459C6.59795 15.7308 7.04725 15.5803 7.23242 15.21V15.2129C7.23553 15.2072 7.24183 15.1947 7.25195 15.1777C7.27226 15.1436 7.30724 15.0896 7.35645 15.0215C7.45551 14.8843 7.6116 14.6958 7.83203 14.5068C8.26494 14.1358 8.9561 13.75 10 13.75C11.0439 13.75 11.7351 14.1358 12.168 14.5068C12.3884 14.6958 12.5445 14.8843 12.6436 15.0215C12.6928 15.0896 12.7277 15.1436 12.748 15.1777C12.7582 15.1947 12.7645 15.2072 12.7676 15.2129L12.7666 15.2109V15.21C12.9518 15.5803 13.4021 15.7308 13.7725 15.5459C14.1428 15.3607 14.2933 14.9104 14.1084 14.54L13.6211 14.7832C14.1083 14.5395 14.1076 14.5384 14.1074 14.5381L14.0996 14.5225C14.0958 14.5151 14.0908 14.5058 14.085 14.4951C14.0732 14.4735 14.0573 14.4451 14.0371 14.4111C13.9964 14.3427 13.938 14.2501 13.8604 14.1426C13.7055 13.9282 13.4709 13.6479 13.1445 13.3682C12.4837 12.8017 11.456 12.25 10 12.25ZM6 8.25C5.44772 8.25 5 8.69771 5 9.25C5 9.80229 5.44772 10.25 6 10.25C6.55228 10.25 7 9.80229 7 9.25C7 8.69771 6.55228 8.25 6 8.25ZM14 8.25C13.4477 8.25 13 8.69771 13 9.25C13 9.80229 13.4477 10.25 14 10.25C14.5523 10.25 15 9.80229 15 9.25C15 8.69771 14.5523 8.25 14 8.25Z"
      fill="currentColor"
    />
  </g>
  <defs>
    <clipPath id="clip0_6288_52"><path fill="currentColor" d="M0 0H20V20H0z" /></clipPath>
  </defs>
</svg>

<svg xmlns="http://www.w3.org/2000/svg" width="20" height="20" fill="none" data-fui-icon="true" viewBox="0 0 20 20"><g clip-path="url(#a)"><path fill="currentColor" d="M10 0c5.42 0 10 4.58 10 10s-4.58 10-10 10S0 15.42 0 10 4.58 0 10 0m0 12.25c-1.456 0-2.484.552-3.145 1.118-.326.28-.56.56-.715.775a4 4 0 0 0-.24.38l-.007.015-.001.001.487.244-.487-.243a.75.75 0 0 0 1.34.67v.003l.02-.035a2.992 2.992 0 0 1 .58-.67c.433-.372 1.124-.758 2.168-.758s1.735.386 2.168.757a3 3 0 0 1 .58.67l.02.036-.001-.002v-.001a.75.75 0 0 0 1.341-.67l-.487.243c.487-.243.487-.245.486-.245l-.007-.015a2 2 0 0 0-.063-.112c-.04-.068-.099-.16-.177-.268a4.5 4.5 0 0 0-.715-.775c-.661-.566-1.689-1.118-3.145-1.118m-4-4a1 1 0 1 0 0 2 1 1 0 0 0 0-2m8 0a1 1 0 1 0 0 2 1 1 0 0 0 0-2"/></g><defs><clipPath id="a"><path fill="currentColor" d="M0 0h20v20H0z"/></clipPath></defs></svg>
